src/assets/homepage/skills/item1.svg

<svg width="42" height="44" viewBox="0 0 42 44" fill="none" xmlns="http://www.w3.org/2000/svg">
<g id="Black">
<path id="Vector" d="M7.27857 0.676186C6.4603 1.02687 6.20703 1.70876 6.20703 3.52064C6.20703 4.88443 6.26548 5.11822 6.71358 5.64425C7.37599 6.44303 8.50598 6.50148 9.22683 5.76114C9.67493 5.33253 9.7139 5.1377 9.7139 3.44271C9.7139 1.80618 9.65545 1.53342 9.28528 1.1048C8.72029 0.48136 8.0384 0.344982 7.27857 0.676186Z" fill="#3B4AE2"/>
<path id="Vector_2" d="M24.5595 0.69563C23.7607 1.04632 23.5464 1.63079 23.5464 3.44268C23.5464 5.52731 23.9945 6.22869 25.3583 6.24817C25.8843 6.24817 26.235 6.11179 26.5662 5.7611C27.0143 5.33249 27.0533 5.13766 27.0533 3.52061C27.0533 1.53338 26.9169 1.12425 26.0791 0.69563C25.3972 0.344943 25.3778 0.344943 24.5595 0.69563Z" fill="#3B4AE2"/>
<path id="Vector_3" d="M1.02463 3.59859C0.693429 3.75445 0.32326 4.10513 0.206364 4.41686C0.0310208 4.84547 -0.027427 8.60562 0.0115382 19.4574L0.069986 33.9525L0.615499 34.4201L1.16101 34.8876H10.4347H19.7084L19.5721 34.1473C19.5136 33.7576 19.4552 33.2706 19.4552 33.0758C19.4552 32.764 18.9097 32.7445 10.7854 32.7445H2.11566V21.055V9.36544L16.6886 9.4044L31.2421 9.46285V15.2687C31.2421 21.0355 31.2421 21.055 31.6513 21.055C31.8851 21.055 32.3526 21.1134 32.6838 21.1719L33.2878 21.2888V12.9113V4.51427L32.8202 3.96876C32.3721 3.44273 32.2747 3.42324 30.1901 3.3648L28.0275 3.28687V4.12462C28.0275 5.21564 27.521 6.22874 26.6832 6.77425C24.8908 7.98217 22.5724 6.5015 22.5724 4.1441V3.32583H16.6302H10.688V4.261C10.688 5.95598 9.53853 7.22235 7.9994 7.22235C6.53821 7.22235 5.50563 6.17029 5.3108 4.41686L5.17443 3.32583H3.40151C2.36893 3.34531 1.37532 3.44273 1.02463 3.59859Z" fill="#3B4AE2"/>
<path id="Vector_4" d="M5.23291 15.0154V16.7688H6.98634H8.73978V15.0154V13.2619H6.98634H5.23291V15.0154Z" fill="#3B4AE2"/>
<path id="Vector_5" d="M11.4673 15.0154V16.7688H13.2207H14.9742V15.0154V13.2619H13.2207H11.4673V15.0154Z" fill="#3B4AE2"/>
<path id="Vector_6" d="M17.7017 15.0154V16.7688H19.5135H21.3059V15.0154V13.2619H19.5135H17.7017V15.0154Z" fill="#3B4AE2"/>
<path id="Vector_7" d="M24.1309 15.0154V16.7688H25.8843H27.6377V15.0154V13.2619H25.8843H24.1309V15.0154Z" fill="#3B4AE2"/>
<path id="Vector_8" d="M5.23291 21.055V22.8084H6.98634H8.73978V21.055V19.3015H6.98634H5.23291V21.055Z" fill="#3B4AE2"/>
<path id="Vector_9" d="M11.4673 21.055V22.8084H13.2207H14.9742V21.055V19.3015H13.2207H11.4673V21.055Z" fill="#3B4AE2"/>
<path id="Vector_10" d="M17.838 19.4379C17.7601 19.4964 17.7017 20.2952 17.7017 21.1914V22.8084H19.4551H21.2085V21.055V19.3015H19.5915C18.6953 19.3015 17.8965 19.36 17.838 19.4379Z" fill="#3B4AE2"/>
<path id="Vector_11" d="M28.6703 22.3019C26.196 22.9058 23.5269 24.8151 22.1631 26.9193C18.286 32.9783 21.3838 41.1805 28.3196 43.1872C30.1315 43.6938 32.8395 43.6353 34.6125 43.0119C42.2496 40.3622 44.4901 30.9327 38.8402 25.2243C36.1516 22.5357 32.294 21.4252 28.6703 22.3019ZM33.5799 24.2112C35.5281 24.6982 37.8661 26.4712 38.8792 28.2246C40.9248 31.712 40.3403 36.2514 37.4959 39.0569C33.424 43.0898 26.8389 42.369 23.7412 37.5762C22.7086 35.9981 22.2995 34.3616 22.4164 32.199C22.4943 30.6599 22.5917 30.2508 23.2151 29.0039C24.1308 27.1336 25.5336 25.7308 27.326 24.8541C29.4106 23.8215 31.3199 23.6267 33.5799 24.2112Z" fill="#3B4AE2"/>
<path id="Vector_12" d="M33.1903 31.7704L29.0989 35.8617L26.9169 33.6797L24.7153 31.4781V33.5433V35.589L26.6441 37.4788C28.1638 38.9789 28.6703 39.3686 29.1184 39.3686C29.5665 39.3686 30.3263 38.7062 33.5215 35.511L37.3985 31.673L37.3401 29.6663L37.2816 27.679L33.1903 31.7704Z" fill="#3B4AE2"/>
<path id="Vector_13" d="M5.23291 27.2894V29.0428H6.98634H8.73978V27.2894V25.536H6.98634H5.23291V27.2894Z" fill="#3B4AE2"/>
<path id="Vector_14" d="M11.5062 27.231L11.5646 28.9454L13.2791 29.0039L14.9741 29.0623V27.2894V25.536H13.2207H11.4478L11.5062 27.231Z" fill="#3B4AE2"/>
</g>
</svg>

<svg width="42" height="44" fill="none" xmlns="http://www.w3.org/2000/svg"><g fill="#3B4AE2"><path d="M7.279.676c-.819.35-1.072 1.033-1.072 2.845 0 1.363.058 1.597.507 2.123.662.799 1.792.857 2.513.117.448-.428.487-.623.487-2.318 0-1.637-.059-1.91-.429-2.338C8.72.48 8.038.345 7.28.676ZM24.56.696c-.8.35-1.014.935-1.014 2.747 0 2.084.448 2.786 1.812 2.805.526 0 .877-.136 1.208-.487.448-.429.487-.623.487-2.24 0-1.988-.136-2.397-.974-2.825-.682-.351-.701-.351-1.52 0Z"/><path d="M1.025 3.599c-.332.155-.702.506-.819.818-.175.428-.233 4.189-.194 15.04L.07 33.952l.545.468.546.468H19.708l-.136-.74c-.058-.39-.117-.877-.117-1.072 0-.312-.545-.331-8.67-.331h-8.67V9.365l14.574.04 14.553.058v5.806c0 5.766 0 5.786.41 5.786.233 0 .7.058 1.032.117l.604.117V4.514l-.468-.545c-.448-.526-.545-.546-2.63-.604l-2.163-.078v.838c0 1.09-.506 2.104-1.344 2.65-1.792 1.207-4.11-.274-4.11-2.63v-.82H10.687v.936c0 1.695-1.15 2.961-2.689 2.961-1.46 0-2.493-1.052-2.688-2.805l-.137-1.091H3.402c-1.033.02-2.027.117-2.377.273Z"/><path d="M5.233 15.015v1.754H8.74V13.262H5.233v1.753ZM11.467 15.015v1.754H14.974V13.262H11.467v1.753ZM17.702 15.015v1.754h3.604V13.262h-3.604v1.753ZM24.13 15.015v1.754h3.508V13.262H24.13v1.753ZM5.233 21.055v1.753H8.74v-3.506H5.233v1.753ZM11.467 21.055v1.753H14.974v-3.506H11.467v1.753ZM17.838 19.438c-.078.058-.136.857-.136 1.753v1.617H21.209v-3.506h-1.617c-.897 0-1.695.058-1.754.136ZM28.67 22.302c-2.474.604-5.143 2.513-6.507 4.617-3.877 6.06-.78 14.262 6.157 16.268 1.811.507 4.52.448 6.292-.175 7.638-2.65 9.878-12.08 4.228-17.788-2.688-2.688-6.546-3.799-10.17-2.922Zm4.91 1.91c1.948.486 4.286 2.26 5.3 4.013 2.045 3.487 1.46 8.026-1.384 10.832-4.072 4.033-10.657 3.312-13.755-1.48-1.032-1.579-1.442-3.215-1.325-5.378.078-1.54.176-1.948.8-3.195.915-1.87 2.318-3.273 4.11-4.15 2.085-1.032 3.994-1.227 6.254-.643Z"/><path d="M33.19 31.77 29.1 35.862l-2.182-2.182-2.202-2.202v4.111l1.93 1.89c1.519 1.5 2.025 1.89 2.473 1.89.449 0 1.208-.663 4.404-3.858l3.877-3.838-.059-2.007-.058-1.987-4.092 4.091ZM5.233 27.29v1.753H8.74V25.536H5.233v1.753ZM11.506 27.231l.059 1.714 1.714.059 1.695.058v-3.526h-3.526l.058 1.695Z"/></g></svg>
